!!!OTL: Shi er yue shu
!!!ARE: Asia, China,ÿAnhui, Liuan
!! III, 585
!!!SCT: C1612
!!!YEM: Copyright 1995, estate of Helmut Schaffrath.
**kern
*ICvox
*Ivox
*M2/4
*k[b-e-]
*B-:
{8g
8g
8cc
8cc
=1
8g
16cc
16b-
16g
16b-
8g
=2
4f
4g}
=3
{8g
8cc
8b-
8cc
=4
4f
4g}
=5
{8cc
8b-
8g
8b-
=6
4f
4g}
=7
{8g
8g
8b-
8b-
=8
8b-
8dd
8dd
8b-
=9
4cc
4cc}
=10
{8g
8cc
8b-
8cc
=11
4f
4g}
=12
{8b-
8b-
8b-
8dd
=13
2cc
=14
4g
8cc
8b-
=15
4f
4g}
==
!!!AGN: Xiaodiao. Fengturenqing
!!!AMT: simple duple
!!!AIN: vox
!!!EED: Helmut Schaffrath
!!!EEV: 1.0
*-
